X: 437
T: Qianhenxian guazhu zoubu kai
%%abc-version 2.0
%%abcx-abcm2ps-target-version 5.9.1 (29 Sep 2008)
%%abc-creator hum2abc beta
%%abcx-conversion-date 2013/10/02 07:52:30
%%abc-edited-by Helmut Schaffrath
%%humdrum-veritas 3557161945
%%humdrum-veritas-data 2358570125
%%continueall 1
%%barnumbers 0
L: 1/8
M: 2/4
K: F
c> f c c [I:setbarnb 1]| 
AC2F | 
c> f c A | 
G4 | 
c> f c c | 
AC2F | 
G> c A D | 
C4 |]  



